X:1
T:Devine's -- Hornpipe
R:hornpipe
B:Cole's 1000 Fiddle Tunes
M:2/4
L:1/16
K:D
vDFAd BdAd|efgf edBd|DFAd BdAd|gfed c"4"eAc|
DFAd BdAd|efgf edcd|gbag fedc|d2d2d2:|
|:(ufg)|afdf c"4"eAc|dcdA BAFA|GBF"4"A EGDF|AgB"4"e dcBA|
afdf c"4"eAc|dfc"4"e DFAD|GBEA gfec|d2d2d2:|
